X: 33
T:The Bluebell Reel
% Nottingham Music Database
S:via PR
M:2/4
L:1/4
K:G
D/2|"G"G/2A/2 B|"D7"A/2B/2 c/2B/4c/4|"G"d3/4e/4 d/2B/2|G B/2d/2|\
"Am"c3/4d/4 c/2B/2|
"D7"A B/2c/2|"G"d3/4e/4 d/2B/2|G/2D/2 G/2A/2|"G"B A/2B/2|"D7"c/2A/2 B/2c/2|\
"G"d3/4e/4 d/2B/2|
G B/2d/2|"Am"c3/4d/4 c/2B/2|"D7"A B/2c/2|"G"B/2G/2 "D7"A/2F/2|G B/2d/2||
"G"g3/2f/2|"C"e/2f/2 g/2e/2|"G"d3/4e/4 d/2B/2|G B/2d/2|"Am"c3/4d/4 c/2B/2|\
"D7"A B/2c/2|"G"d3/4e/4 d/2B/2|G B/2d/2|
"G"g3/2f/2|"C"e/2f/2 g/2e/2|"G"d3/4e/4 d/2B/2|G B/2d/2|"Am"c3/4d/4 c/2B/2|\
"D7"A B/2c/2|"G"B/2G/2 "D7"A/2F/2|"G"G3/2||<end>
<start>
